svg/envelope-f.svg

<svg xmlns="http://www.w3.org/2000/svg" viewBox="0 0 64 42" enable-background="new 0 0 64 42"><style type="text/css">.st0{fill:#333333;}</style><title>envelope-f</title><desc>Created with Sketch.</desc><path class="st0" d="M0 4.5v33.4l20.7-15.9zM61.5.3c-.5-.2-1-.3-1.5-.3h-56c-.5 0-1 .1-1.5.3l29.5 24.3 29.5-24.3zM32.8 30.8c-.4.4-1.1.4-1.5 0l-7.3-6.1-21.9 16.8c.6.3 1.2.5 1.9.5h56c.7 0 1.3-.2 1.9-.5l-21.8-16.8-7.3 6.1zM43.3 22l20.7 15.9v-33.4z"/></svg>

<svg xmlns="http://www.w3.org/2000/svg" viewBox="0 0 64 42"><path d="M0 4.5v33.4L20.7 22zM61.5.3C61 .1 60.5 0 60 0H4c-.5 0-1 .1-1.5.3L32 24.6 61.5.3zM32.8 30.8c-.4.4-1.1.4-1.5 0L24 24.7 2.1 41.5c.6.3 1.2.5 1.9.5h56c.7 0 1.3-.2 1.9-.5L40.1 24.7l-7.3 6.1zM43.3 22L64 37.9V4.5z" fill="#333"/></svg>
